file/pdvsa.svg

<svg clip-rule="evenodd" fill-rule="evenodd" stroke-linejoin="round" stroke-miterlimit="1.41421" viewBox="0 0 560 400" xmlns="http://www.w3.org/2000/svg"><path d="m44.857 41.74-16.16-16.449 16.595-16.161c.58.87 1.232 1.74 1.884 2.682.435.797.87 1.594 1.377 2.464v.435l-10.653 10.797 10.435 10.727c0 .072 0 .145.073.289-.29.58-.58 1.158-.942 1.811-.652.871-1.304 1.813-1.956 2.754-.218.218-.435.434-.653.651zm-38.987-.361c-.58-.797-1.232-1.668-1.884-2.537-.29-.508-.652-1.086-1.015-1.666-.145-.363-.29-.725-.507-1.16l10.58-10.899-10.508-10.913c.29-.58.58-1.232.942-1.884.652-.942 1.304-1.885 1.956-2.899.218-.218.436-.435.653-.652l16.233 16.522-16.378 16.16zm43.407-7.174-8.551-8.842 8.624-8.624h.217c.29 1.087.58 2.174.942 3.333.145 1.015.29 2.102.435 3.188 0 1.015 0 2.102.072 3.189-.145 1.303-.29 2.607-.507 3.984-.29 1.16-.58 2.318-.942 3.479-.072.072-.145.219-.217.363 0 .002 0 .002-.073-.07zm-47.828-.508c-.855-3.207-1.449-5.791-1.449-9.131.253-2.536.457-4.787 1.159-7.247.073-.29.217-.58.362-.942 0 0 .072 0 .145-.073l8.624 8.914-8.769 8.552zm13.624-31.161c-.073-.072-.145-.217-.218-.362 0 0 0-.072.073-.145 2.26-.822 4.254-1.413 6.594-2.029 1.232 1.232 2.536 2.536 3.841 3.841.072 0 .145 0 .29.072 1.304-1.232 2.608-2.464 3.913-3.769.363 0 .725.073 1.087.146 1.087.29 2.247.652 3.406 1.014.725.29 1.45.58 2.247.942 0 0 0 .072.073.145l-10.653 10.508zm10.363 22.773-17.755-18.28c.652-.652 1.377-1.305 2.102-1.957.218-.145.435-.29.725-.435.073-.072.145-.145.218-.29.507-.29 1.014-.58 1.521-.942.145-.073.362-.145.58-.217l12.464 12.682c.145 0 .29 0 .435-.073l12.609-12.318c.145 0 .29.071.507.144.87.652 1.739 1.305 2.682 1.957.29.29.58.58.942.87.072 0 .145 0 .218.072.217.29.507.579.797.87-.073 0-.146.072-.291.145 0 .073 0 .145-.072.218zm-10.581 23.134s0 .072.073.145c1.969 1.041 3.925 1.662 6.594 2.029l4.05-4.021 3.994 3.877c.363 0 .725-.072 1.087-.145 1.087-.291 2.247-.652 3.406-1.016.725-.289 1.45-.578 2.247-.941 0 0 0-.072.073-.145l-10.653-10.507zm10.581-23.134-17.755 18.279c1.565 1.564 2.858 2.404 4.565 3.623.145.074.362.146.58.219l12.464-12.684c.145 0 .29 0 .435.074l12.609 12.318c.145 0 .29-.072.507-.145.87-.652 1.739-1.305 2.682-1.957.29-.289.58-.578.942-.869.072 0 .145 0 .218-.072.217-.291.507-.58.797-.869-.073 0-.146-.072-.291-.145 0-.072 0-.146-.072-.219zm44.8-.836h2.441c1.584 0 2.647-.176 3.181-.529.538-.353.807-.979.807-1.878 0-.908-.26-1.542-.773-1.895-.512-.353-1.588-.534-3.214-.534h-2.441v4.836zm-7.596 13.029v-23.664h9.731c2.151 0 3.861.126 5.117.378s2.311.659 3.155 1.214c1.092.74 1.908 1.656 2.441 2.749.538 1.092.807 2.39.807 3.886 0 2.643-.782 4.673-2.345 6.075-1.563 1.408-3.824 2.113-6.765 2.113h-4.546v7.248h-7.595zm31.869-5.992h2.038c1.895 0 3.214-.424 3.945-1.268.731-.846 1.101-2.361 1.101-4.547 0-2.13-.378-3.643-1.126-4.529-.748-.891-2.025-1.336-3.823-1.336h-2.135zm-7.596 5.992v-23.664h9.185c2.332 0 4.072.105 5.21.315 1.144.21 2.14.559 2.983 1.038 1.639.962 2.87 2.319 3.693 4.063.824 1.744 1.24 3.895 1.24 6.441 0 2.678-.514 4.934-1.534 6.756-1.025 1.824-2.534 3.186-4.525 4.072-.769.354-1.739.605-2.898.752-1.16.15-3.025.227-5.58.227zm23.6-23.664h7.773l3.983 15.281 4.273-15.281h7.47l-7.966 23.664h-7.567zm24.95 16.291h7.391c.202.857.571 1.479 1.104 1.848.534.375 1.332.563 2.392.563.891 0 1.592-.154 2.096-.457.509-.303.765-.727.765-1.26 0-.857-1.066-1.555-3.197-2.09-.428-.104-.756-.189-.979-.242-1.744-.445-3.135-.857-4.168-1.227-1.034-.371-1.786-.719-2.257-1.039-.907-.651-1.592-1.437-2.046-2.344s-.685-1.95-.685-3.113c0-2.345.882-4.193 2.646-5.53 1.766-1.336 4.202-2.008 7.294-2.008 3.043 0 5.438.643 7.181 1.92 1.744 1.277 2.731 3.113 2.958 5.5h-7.214c-.117-.694-.429-1.215-.924-1.555-.496-.345-1.211-.517-2.127-.517-.814 0-1.42.134-1.814.403-.396.27-.593.677-.593 1.223 0 .782 1.038 1.437 3.113 1.958.181.051.323.092.416.114.299.071.757.185 1.365.336 2.753.698 4.555 1.332 5.399 1.895 1.047.697 1.815 1.491 2.294 2.378.483.891.728 1.941.728 3.15 0 2.613-.916 4.623-2.74 6.021-1.823 1.404-4.445 2.105-7.849 2.105-3.134 0-5.626-.701-7.457-2.102-1.836-1.401-2.869-3.381-3.092-5.93zm31.995-.723h4.77l-2.361-8.194zm-9.768 8.096 8.323-23.664h7.693l8.323 23.664h-7.537l-.882-3.135h-7.534l-.916 3.135z" fill="#ed1c24" transform="matrix(1.97771 0 0 1.97771 100 149.947)"/></svg>

<?xml version="1.0" encoding="UTF-8" standalone="no"?>
<!DOCTYPE svg PUBLIC "-//W3C//DTD SVG 1.1//EN" "http://www.w3.org/Graphics/SVG/1.1/DTD/svg11.dtd">
<svg width="100%" height="100%" viewBox="0 0 560 400" version="1.1" xmlns="http://www.w3.org/2000/svg" xmlns:xlink="http://www.w3.org/1999/xlink" xml:space="preserve" xmlns:serif="http://www.serif.com/" style="fill-rule:evenodd;clip-rule:evenodd;stroke-linejoin:round;stroke-miterlimit:1.41421;">
    <g transform="matrix(1.97771,0,0,1.97771,100,149.947)">
        <path d="M44.857,41.74L28.697,25.291L45.292,9.13C45.872,10 46.524,10.87 47.176,11.812C47.611,12.609 48.046,13.406 48.553,14.276L48.553,14.711L37.9,25.508L48.335,36.235C48.335,36.307 48.335,36.38 48.408,36.524C48.118,37.104 47.828,37.682 47.466,38.335C46.814,39.206 46.162,40.148 45.51,41.089C45.292,41.307 45.075,41.523 44.857,41.74ZM5.87,41.379C5.29,40.582 4.638,39.711 3.986,38.842C3.696,38.334 3.334,37.756 2.971,37.176C2.826,36.813 2.681,36.451 2.464,36.016L13.044,25.117L2.536,14.204C2.826,13.624 3.116,12.972 3.478,12.32C4.13,11.378 4.782,10.435 5.434,9.421C5.652,9.203 5.87,8.986 6.087,8.769L22.32,25.291L5.942,41.451L5.87,41.379ZM49.277,34.205L40.726,25.363L49.35,16.739L49.567,16.739C49.857,17.826 50.147,18.913 50.509,20.072C50.654,21.087 50.799,22.174 50.944,23.26C50.944,24.275 50.944,25.362 51.016,26.449C50.871,27.752 50.726,29.056 50.509,30.433C50.219,31.593 49.929,32.751 49.567,33.912C49.495,33.984 49.422,34.131 49.35,34.275C49.35,34.277 49.35,34.277 49.277,34.205ZM1.449,33.697C0.594,30.49 0,27.906 0,24.566C0.253,22.03 0.457,19.779 1.159,17.319C1.232,17.029 1.376,16.739 1.521,16.377C1.521,16.377 1.593,16.377 1.666,16.304L10.29,25.218L1.521,33.77L1.449,33.697ZM15.073,2.536C15,2.464 14.928,2.319 14.855,2.174C14.855,2.174 14.855,2.102 14.928,2.029C17.188,1.207 19.182,0.616 21.522,0C22.754,1.232 24.058,2.536 25.363,3.841C25.435,3.841 25.508,3.841 25.653,3.913C26.957,2.681 28.261,1.449 29.566,0.144C29.929,0.144 30.291,0.217 30.653,0.29C31.74,0.58 32.9,0.942 34.059,1.304C34.784,1.594 35.509,1.884 36.306,2.246C36.306,2.246 36.306,2.318 36.379,2.391L25.726,12.899L15.073,2.536ZM25.436,25.309L7.681,7.029C8.333,6.377 9.058,5.724 9.783,5.072C10.001,4.927 10.218,4.782 10.508,4.637C10.581,4.565 10.653,4.492 10.726,4.347C11.233,4.057 11.74,3.767 12.247,3.405C12.392,3.332 12.609,3.26 12.827,3.188L25.291,15.87C25.436,15.87 25.581,15.87 25.726,15.797L38.335,3.479C38.48,3.479 38.625,3.55 38.842,3.623C39.712,4.275 40.581,4.928 41.524,5.58C41.814,5.87 42.104,6.16 42.466,6.45C42.538,6.45 42.611,6.45 42.684,6.522C42.901,6.812 43.191,7.101 43.481,7.392C43.408,7.392 43.335,7.464 43.19,7.537C43.19,7.61 43.19,7.682 43.118,7.755L25.436,25.309ZM14.855,48.443C14.855,48.443 14.855,48.515 14.928,48.588C16.897,49.629 18.853,50.25 21.522,50.617L25.572,46.596L29.566,50.473C29.929,50.473 30.291,50.401 30.653,50.328C31.74,50.037 32.9,49.676 34.059,49.312C34.784,49.023 35.509,48.734 36.306,48.371C36.306,48.371 36.306,48.299 36.379,48.226L25.726,37.719L14.855,48.443ZM25.436,25.309L7.681,43.588C9.246,45.152 10.539,45.992 12.246,47.211C12.391,47.285 12.608,47.357 12.826,47.43L25.29,34.746C25.435,34.746 25.58,34.746 25.725,34.82L38.334,47.138C38.479,47.138 38.624,47.066 38.841,46.993C39.711,46.341 40.58,45.688 41.523,45.036C41.813,44.747 42.103,44.458 42.465,44.167C42.537,44.167 42.61,44.167 42.683,44.095C42.9,43.804 43.19,43.515 43.48,43.226C43.407,43.226 43.334,43.154 43.189,43.081C43.189,43.009 43.189,42.935 43.117,42.862L25.436,25.309ZM70.236,24.473L72.677,24.473C74.261,24.473 75.324,24.297 75.858,23.944C76.396,23.591 76.665,22.965 76.665,22.066C76.665,21.158 76.405,20.524 75.892,20.171C75.38,19.818 74.304,19.637 72.678,19.637L70.237,19.637L70.237,24.473L70.236,24.473ZM62.64,37.502L62.64,13.838L72.371,13.838C74.522,13.838 76.232,13.964 77.488,14.216C78.744,14.468 79.799,14.875 80.643,15.43C81.735,16.17 82.551,17.086 83.084,18.179C83.622,19.271 83.891,20.569 83.891,22.065C83.891,24.708 83.109,26.738 81.546,28.14C79.983,29.548 77.722,30.253 74.781,30.253L70.235,30.253L70.235,37.501L62.64,37.501L62.64,37.502ZM94.509,31.51L96.547,31.51C98.442,31.51 99.761,31.086 100.492,30.242C101.223,29.396 101.593,27.881 101.593,25.695C101.593,23.565 101.215,22.052 100.467,21.166C99.719,20.275 98.442,19.83 96.644,19.83L94.509,19.83L94.509,31.51ZM86.913,37.502L86.913,13.838L96.098,13.838C98.43,13.838 100.17,13.943 101.308,14.153C102.452,14.363 103.448,14.712 104.291,15.191C105.93,16.153 107.161,17.51 107.984,19.254C108.808,20.998 109.224,23.149 109.224,25.695C109.224,28.373 108.71,30.629 107.69,32.451C106.665,34.275 105.156,35.637 103.165,36.523C102.396,36.877 101.426,37.128 100.267,37.275C99.107,37.425 97.242,37.502 94.687,37.502L86.913,37.502ZM110.513,13.838L118.286,13.838L122.269,29.119L126.542,13.838L134.012,13.838L126.046,37.502L118.479,37.502L110.513,13.838ZM135.463,30.129L142.854,30.129C143.056,30.986 143.425,31.608 143.958,31.977C144.492,32.352 145.29,32.54 146.35,32.54C147.241,32.54 147.942,32.386 148.446,32.083C148.955,31.78 149.211,31.356 149.211,30.823C149.211,29.966 148.145,29.268 146.014,28.733C145.586,28.629 145.258,28.544 145.035,28.491C143.291,28.046 141.9,27.634 140.867,27.264C139.833,26.893 139.081,26.545 138.61,26.225C137.703,25.574 137.018,24.788 136.564,23.881C136.11,22.974 135.879,21.931 135.879,20.768C135.879,18.423 136.761,16.575 138.525,15.238C140.291,13.902 142.727,13.23 145.819,13.23C148.862,13.23 151.257,13.873 153,15.15C154.744,16.427 155.731,18.263 155.958,20.65L148.744,20.65C148.627,19.956 148.315,19.435 147.82,19.095C147.324,18.75 146.609,18.578 145.693,18.578C144.879,18.578 144.273,18.712 143.879,18.981C143.483,19.251 143.286,19.658 143.286,20.204C143.286,20.986 144.324,21.641 146.399,22.162C146.58,22.213 146.722,22.254 146.815,22.276C147.114,22.347 147.572,22.461 148.18,22.612C150.933,23.31 152.735,23.944 153.579,24.507C154.626,25.204 155.394,25.998 155.873,26.885C156.356,27.776 156.601,28.826 156.601,30.035C156.601,32.648 155.685,34.658 153.861,36.056C152.038,37.46 149.416,38.161 146.012,38.161C142.878,38.161 140.386,37.46 138.555,36.059C136.719,34.658 135.686,32.678 135.463,30.129ZM167.458,29.406L172.228,29.406L169.867,21.212L167.458,29.406ZM157.69,37.502L166.013,13.838L173.706,13.838L182.029,37.502L174.492,37.502L173.61,34.367L166.076,34.367L165.16,37.502L157.69,37.502Z" style="fill:rgb(237,28,36);"/>
    </g>
</svg>
